X:1
T:Over the Moor to Maggie
R:Reel
%%printtempo 0
Q:160
K:G
M:4/4
BA|\
"G"G3 A B2d2|"C"egge "G"dBAG|"Am"EAAG ABcA|EAAG "D"AcBA|
"G"G3 A B2d2|"Am"eaag "G"dBAG|"C"EG (3GGG "G"BGAG|"C"EG"D"GF "G"G2:|
|:ga|\
"G"bg g2 agef|g3e d2 Bd|"Am"eaag abag|eaag a2ga|
"G"bg g2 agef|gage d2Bd|"C"eg (3ggg "G"bgag|"D"eggf "G"g2:|
|:Bd|\
"C"e3B "G"d3B|"D"c3A "G"B2AG|"Am"EAAG ABcA|EAAG ABcd|
"C"egeB "G"d3B|"Am"c3A"Bm"B2AG|"C"EG (3GGG "G"BGAG|"D"EGGF "G"G2:|
